X: 1
T: the Boys of Wexford
R: march
Z: John Chambers <jc:trillian.mit.edu>
M: 2/4
L: 1/8
K: G
D2 | "G"G3  A | GF ED |    d3 e | d2 "(D)"c2 |1 "G"B2 G2 |     BA GF  | "C"E4- | "D7"E2 \
                                            :|2 "G"B2 A2 | "A7"GA B^c | "D"d4- |     d2 |]
d2 | "C"e2 c2 | g2 fe | "G"d3 c | B3       d | "C"c2 B2 |     A2 G2  |    E4- | "D7"E2 ||
D2 | "G"G3  A | GF ED |    d3 e | d2 "(D)"c2 | "G"B2 G2 | "D7"BA GF  | "G"G4- |     G2 |]
